svgs/sharp-light/microchip.svg

<svg xmlns="http://www.w3.org/2000/svg" viewBox="0 0 512 512"><!--! Font Awesome Pro 6.6.0 by @fontawesome - https://fontawesome.com License - https://fontawesome.com/license (Commercial License) Copyright 2024 Fonticons, Inc. --><path d="M176 16l0-16L144 0l0 16 0 48L96 64 64 64l0 32 0 48-48 0L0 144l0 32 16 0 48 0 0 64-48 0L0 240l0 32 16 0 48 0 0 64-48 0L0 336l0 32 16 0 48 0 0 48 0 32 32 0 48 0 0 48 0 16 32 0 0-16 0-48 64 0 0 48 0 16 32 0 0-16 0-48 64 0 0 48 0 16 32 0 0-16 0-48 48 0 32 0 0-32 0-48 48 0 16 0 0-32-16 0-48 0 0-64 48 0 16 0 0-32-16 0-48 0 0-64 48 0 16 0 0-32-16 0-48 0 0-48 0-32-32 0-48 0 0-48 0-16L336 0l0 16 0 48-64 0 0-48 0-16L240 0l0 16 0 48-64 0 0-48zM416 96l0 320L96 416 96 96l320 0zm-64 64l0 192-192 0 0-192 192 0zM160 128l-32 0 0 32 0 192 0 32 32 0 192 0 32 0 0-32 0-192 0-32-32 0-192 0z"/></svg>

<svg xmlns="http://www.w3.org/2000/svg" viewBox="0 0 512 512"><!--! Font Awesome Pro 6.4.2 by @fontawesome - https://fontawesome.com License - https://fontawesome.com/license (Commercial License) Copyright 2023 Fonticons, Inc. --><path d="M176 16V0H144V16 64H96 64V96v48H16 0v32H16 64v64H16 0v32H16 64v64H16 0v32H16 64v48 32H96h48v48 16h32V496 448h64v48 16h32V496 448h64v48 16h32V496 448h48 32V416 368h48 16V336H496 448V272h48 16V240H496 448V176h48 16V144H496 448V96 64H416 368V16 0H336V16 64H272V16 0H240V16 64H176V16zM416 96V416H96V96H416zm-64 64V352H160V160H352zM160 128H128v32V352v32h32H352h32V352 160 128H352 160z"/></svg>
